X:81
T:Trip to Martinico. ThoH.081, A
Q:3/8=100
M:3/4
L:1/8
B:Thompson's Compleat Collection of 120 Favourite Hornpipes.
Z:Village Music Project, Simon Wilson 2016
O:England.
K:D
D>D (3(FED) EFG|F>F AGF GAB|ABc def gec|dAG FGA GFE|D>D FED EFG|
F>F AGF GAB|ABc def gec|dAG FGAD3:||:afd AFD BGD| AFD EFG ABc|
def ged cde|dAG FGA FED|D>D FED EFG|F>F AGF GAB|ABc def gec|dAG FGAD2:|
T:Trip to Martinico, edited. ThoH.081, A
M:9/8
L:1/8
B:Thompson's Compleat Collection of 120 Favourite Hornpipes.
Z:Village Music Project, Simon Wilson 2016
O:England.
K:D
D2D "rebarred into 9/8"FED EFG|F2F AGF GAB|ABc def gec|dAG FGA GFE|
D2D FED EFG|F2F AGF GAB|ABc def gec|dAG FGAD3:|
|:afd AFD BGD| AFD EFG ABc|def ged cde|dAG FGA FED|
D2D FED EFG|F2F AGF GAB|ABc def gec|dAG FGAD3:|

